images/svg/icon-plus.svg

<svg width="20" height="20" fill="none" xmlns="http://www.w3.org/2000/svg"><path d="M17 9h-6V3H9v6H3v2h6v6h2v-6h6V9Z" fill="black"/></svg>

<svg width="20" height="20" viewBox="0 0 20 20" fill="none" xmlns="http://www.w3.org/2000/svg">
<path d="M17 9H11V3H9V9H3V11H9V17H11V11H17V9Z" fill="black"/>
</svg>
